!!!!SEGMENT: pl-sa--l-1636--019_anonim--keyboard-piece.krn
!!!cenid: 17xx:726
!!!COM: Anonim
!!!COM-rismid: pe30004985
!!!CDT:
!!!CNT:
!!!OTL: [Keyboard piece]
!!!PDT:
!!!AGN: Secular
!!!SMS-siglum: PL-SA
!!!SMS-shelfmark: L 1636
!!!SMS-shelfwork: 019 W
!!!SMS-variant:
!!!SMS-altvar:
!!!NIFC-rismid: 1001076417
!!!URL-scan: http://repozytorium.nifc.pl/skany/pl-sa-nut--l1636
!!!ONB-nifc: 6r, skan 0009, s. 6-8
**kern	**kern
*part1	*part1
*staff2	*staff1
*Iorgan	*Iempty
*I"Organo	*
*I'Org.	*
*group1	*group1
*clefC3	*clefC1
*k[]	*k[]
*D:	*D:
*M2/2	*M2/2
*met(c|)	*met(c|)
=1	=1
*2\right	*2\right
!LO:TX:a:t=P:problem:brak pauzy	!LO:TX:a:t=P:problem:4\right:global
2ryy	4dd\
!	!LO:TX:a:t=P:problem:8\right:global
.	8cc\L
.	8dd\J
!LO:TX:a:t=P:problem:4\right:global	!
4g\	4b\
!LO:TX:a:t=P:problem:8\right:global	!
8f\L	8a\L
8g\J	8b\J
=2	=2
4e\	4cc\
8d\L	8b\L
8e\J	8cc\J
4f\	4a\
8e\L	8g\L
8f\J	8a\J
*clefG1	*
=3	=3
*	*^
4gg\	4g/	2ryy
8ff\L	8a\L	.
8gg\J	8g\J	.
4cc/	4ee/	2g\
8b/L	8dd/L	.
8cc/J	8ee/J	.
=4	=4	=4
4ff\	2dd/	2a\
8ee\L	.	.
8dd\J	.	.
4ee\	2b/	4g\
8dd\L	.	8f\L
8ee\J	.	8g\J
=5	=5	=5
2a/	2cc/	8a\L
.	.	8g\J
.	.	4a\
*clefC4	*	*
4e\	2ryy	4f#X/
8c\L	.	8e/L
8d\J	.	8f#/J
=6	=6	=6
*^	*	*
4B\	2ryy	2g/	2e\
8A\L	.	.	.
8B\J	.	.	.
2e/	2c\	4ee/	2ryy
.	.	8dd/L	.
.	.	8ee/J	.
*v	*v	*	*
*clefF4	*	*
!!LO:LB:g=original
=7	=7	=7
4A\	4cc#X/	2a\
8G\L	8b/L	.
8A\J	8cc#/J	.
4F#X\	4dd/	2a\
8E\L	4cc#/	.
8F#\J	.	.
=8	=8	=8
*^	*	*
4d\	2ryy	2b/	2g\
8c\L	.	.	.
8d\J	.	.	.
4c/	2G\	4g/	2ryy
4d/	.	8f/L	.
.	.	8g/J	.
=9	=9	=9	=9
2c#X/	2A\	4e/	2ryy
.	.	8d/L	.
.	.	8e/J	.
4D/	2ryy	2f#X/	2d\
8C/L	.	.	.
8D/J	.	.	.
=10	=10	=10	=10
4BB/	2ryy	2f/	2d\
8AA/L	.	.	.
8BB/J	.	.	.
4c\	2C\	2g/	4e\
8B\L	.	.	8d\L
8c\J	.	.	8e\J
*	*	*v	*v
=11	=11	=11
2B/	2D\	4dd\
.	.	8cc\L
.	.	8dd\J
2G/	2E\	4b\
.	.	8a\L
.	.	8b\J
=12	=12	=12
*	*	*^
8A/L	2C\	4cc\	2ryy
8G/J	.	.	.
4A/	.	8b\L	.
.	.	8cc\J	.
2F/	4D\	2a/	4f\
.	8C\L	.	8e\L
.	8D\J	.	8f\J
!!LO:LB:g=original
=13	=13	=13	=13
4G/	2BB-X\	4b-X/	2c\
8F/L	.	8a/L	.
8G/J	.	8b-/J	.
4E/	2C\	4g/	2d\
8D/L	.	8f/L	.
8E/J	.	8g/J	.
=14	=14	=14	=14
4F/	2AA\	4a/	2B\
8E/L	.	8g/L	.
8F/J	.	8a/J	.
4D/	2BB-X\	4f/	2c\
8C/L	.	8e/L	.
8D/J	.	8f/J	.
=15	=15	=15	=15
4E/	2GG\	8g/L	2ryy
.	.	8a/	.
4D/ 4F	.	8f/	.
.	.	8g/J	.
!	!	!LO:TX:a:t=P:problem: przepełniona miara taktu 2e w źródle	!
!	!	!LO:N:vis=2	!
2E/	[2AA\	4e/	8d\L
.	.	.	16c\L
.	.	.	16B\JJ
.	.	4c#X/	8A\L
.	.	.	8G\J
*	*	*v	*v
=16	=16	=16
1DD 1D	1AA]	1F#X 1A 1d
*v	*v	*
=:|!	=:|!
*-	*-
!!!system-decoration: [(g1)]
!!!ENC:Anna Matuszewska
!!!END:2020-12-07
!!!ENC: Tomasz Grochalski
!!!END: 2020-11-06
